X: 2
T: Margaree Reel
R: Reel
S: https://tunearch.org/wiki/Margaree_Reel [2020-04-21]
M: C|
L: 1/8
K: Amix
a |:\
e2 e>d c>AA>B | A2 Ag f>d f<a | e>fe>d c2 Ac |\
[1 B>cd>e f>d f<a :|2 B>cd>e f>d f<g ||
|:\
a2 af e>cc>e | a2 ag f>dd>f |\
a2 af e>ca>c | B>cd>e f>d f<g :|
